svg/icon/evx.svg

<svg xmlns="http://www.w3.org/2000/svg" xmlns:xlink="http://www.w3.org/1999/xlink" width="32" height="32" viewBox="0 0 32 32"><defs><linearGradient id="evx-c" x1="50%" x2="50%" y1="0%" y2="100%"><stop offset="0%" stop-color="#FFF" stop-opacity=".5"/><stop offset="100%" stop-opacity=".5"/></linearGradient><circle id="evx-b" cx="16" cy="15" r="15"/><filter id="evx-a" width="111.7%" height="111.7%" x="-5.8%" y="-4.2%" filterUnits="objectBoundingBox"><feOffset dy=".5" in="SourceAlpha" result="shadowOffsetOuter1"/><feGaussianBlur in="shadowOffsetOuter1" result="shadowBlurOuter1" stdDeviation=".5"/><feComposite in="shadowBlurOuter1" in2="SourceAlpha" operator="out" result="shadowBlurOuter1"/><feColorMatrix in="shadowBlurOuter1" values="0 0 0 0 0 0 0 0 0 0 0 0 0 0 0 0 0 0 0.199473505 0"/></filter><path id="evx-e" d="M10.081849,16.2104086 L7.46355797,18.8286996 L6.23411812,20.0582027 C5.96246167,19.5358156 5.73170858,18.9890256 5.54565204,18.4220684 C5.19206244,17.344483 5,16.1943211 5,14.9999684 C5,8.93457589 9.93457589,4 15.9999684,4 C22.0653609,4 27,8.93457589 27,14.9999684 C27,21.0653609 22.0653609,26 15.9999684,26 C13.6539997,26 11.4775238,25.261274 9.68997761,24.0049656 C9.23833375,23.6875379 8.81121926,23.3375518 8.41286987,22.9575363 L9.57523327,21.7951096 L17.9919599,13.3784392 C18.0572378,12.5451952 18.7561298,11.8871787 19.6057921,11.8871787 C20.4434867,11.8871787 21.1346283,12.5267891 21.2164901,13.3433354 L25.0901862,17.2170315 C25.2635988,16.5059958 25.3562793,15.7636663 25.3562793,14.9999684 C25.3562793,9.84089818 21.1590386,5.64372067 15.9999684,5.64372067 C10.8408982,5.64372067 6.64372067,9.84089818 6.64372067,14.9999684 C6.64372067,15.7177686 6.72521128,16.4168556 6.87902561,17.0886948 L9.36679337,14.6009271 C9.48895079,13.8284108 10.1594591,13.2358831 10.9657324,13.2358831 C11.7610816,13.2358831 12.4243198,13.8124633 12.5594052,14.5696268 L14.1415525,16.151774 L12.9792523,17.314011 L11.8652543,16.2000481 C11.607824,16.3727424 11.2983295,16.4735703 10.9657324,16.4735703 C10.639843,16.4735703 10.3361337,16.3767682 10.081849,16.2104086 Z M18.7906263,14.9043169 L10.8726979,22.8222454 C12.3462302,23.7913452 14.1082356,24.3562793 15.9999684,24.3562793 C19.7531517,24.3562793 22.9967183,22.134538 24.4860557,18.9375013 L20.4409996,14.8923926 C20.1970085,15.0399479 19.9111361,15.1249291 19.6057921,15.1249291 C19.3087698,15.1249291 19.0301722,15.0445168 18.7906263,14.9043169 Z M19.635436,12.7875836 C19.2345485,12.7875836 18.9084057,13.1137135 18.9084057,13.5146427 C18.9084057,13.9155143 19.2345485,14.2416442 19.635436,14.2416442 C20.0363235,14.2416442 20.3624663,13.9155143 20.3624663,13.5146427 C20.3624663,13.1137135 20.0363235,12.7875836 19.635436,12.7875836 Z M10.9742924,14.1152041 C10.573405,14.1152041 10.2472621,14.441334 10.2472621,14.8422633 C10.2472621,15.2431348 10.573405,15.5692647 10.9742924,15.5692647 C11.3751799,15.5692647 11.7013227,15.2431348 11.7013227,14.8422633 C11.7013227,14.441334 11.3751799,14.1152041 10.9742924,14.1152041 Z"/><filter id="evx-d" width="115.9%" height="115.9%" x="-8%" y="-5.7%" filterUnits="objectBoundingBox"><feOffset dy=".5" in="SourceAlpha" result="shadowOffsetOuter1"/><feGaussianBlur in="shadowOffsetOuter1" result="shadowBlurOuter1" stdDeviation=".5"/><feColorMatrix in="shadowBlurOuter1" values="0 0 0 0 0 0 0 0 0 0 0 0 0 0 0 0 0 0 0.204257246 0"/></filter></defs><g fill="none" fill-rule="evenodd"><use fill="#000" filter="url(#evx-a)" xlink:href="#evx-b"/><use fill="#044AAC" xlink:href="#evx-b"/><use fill="url(#evx-c)" style="mix-blend-mode:soft-light" xlink:href="#evx-b"/><circle cx="16" cy="15" r="14.5" stroke="#000" stroke-opacity=".097"/><g><use fill="#000" filter="url(#evx-d)" xlink:href="#evx-e"/><use fill="#FFF" xlink:href="#evx-e"/></g></g></svg>

<svg xmlns="http://www.w3.org/2000/svg" xmlns:xlink="http://www.w3.org/1999/xlink" width="32" height="32" viewBox="0 0 32 32"><defs><linearGradient id="c" x1="50%" x2="50%" y1="0%" y2="100%"><stop offset="0%" stop-color="#FFF" stop-opacity=".5"/><stop offset="100%" stop-opacity=".5"/></linearGradient><circle id="b" cx="16" cy="15" r="15"/><filter id="a" width="111.7%" height="111.7%" x="-5.8%" y="-4.2%" filterUnits="objectBoundingBox"><feOffset dy=".5" in="SourceAlpha" result="shadowOffsetOuter1"/><feGaussianBlur in="shadowOffsetOuter1" result="shadowBlurOuter1" stdDeviation=".5"/><feComposite in="shadowBlurOuter1" in2="SourceAlpha" operator="out" result="shadowBlurOuter1"/><feColorMatrix in="shadowBlurOuter1" values="0 0 0 0 0 0 0 0 0 0 0 0 0 0 0 0 0 0 0.199473505 0"/></filter><path id="e" d="M10.082 16.21l-2.618 2.62-1.23 1.23A10.937 10.937 0 0 1 5 15C5 8.935 9.935 4 16 4s11 4.935 11 11-4.935 11-11 11c-2.346 0-4.522-.739-6.31-1.995a11.08 11.08 0 0 1-1.277-1.047l1.162-1.163 8.417-8.417a1.621 1.621 0 0 1 1.614-1.49 1.62 1.62 0 0 1 1.61 1.455l3.874 3.874A9.346 9.346 0 0 0 25.356 15c0-5.16-4.197-9.356-9.356-9.356-5.16 0-9.356 4.197-9.356 9.356 0 .718.081 1.417.235 2.089L9.367 14.6a1.621 1.621 0 0 1 1.599-1.365 1.62 1.62 0 0 1 1.593 1.334l1.583 1.582-1.163 1.162-1.114-1.114a1.61 1.61 0 0 1-1.783.01zm8.709-1.306l-7.918 7.918A9.301 9.301 0 0 0 16 24.356c3.753 0 6.997-2.221 8.486-5.418l-4.045-4.046a1.609 1.609 0 0 1-1.65.012zm.844-2.116a.728.728 0 1 0 .002 1.455.728.728 0 0 0-.002-1.455zm-8.66 1.327a.728.728 0 1 0 0 1.456.728.728 0 0 0 0-1.456z"/><filter id="d" width="115.9%" height="115.9%" x="-8%" y="-5.7%" filterUnits="objectBoundingBox"><feOffset dy=".5" in="SourceAlpha" result="shadowOffsetOuter1"/><feGaussianBlur in="shadowOffsetOuter1" result="shadowBlurOuter1" stdDeviation=".5"/><feColorMatrix in="shadowBlurOuter1" values="0 0 0 0 0 0 0 0 0 0 0 0 0 0 0 0 0 0 0.204257246 0"/></filter></defs><g fill="none" fill-rule="evenodd"><use fill="#000" filter="url(#a)" xlink:href="#b"/><use fill="#044AAC" xlink:href="#b"/><use fill="url(#c)" style="mix-blend-mode:soft-light" xlink:href="#b"/><circle cx="16" cy="15" r="14.5" stroke="#000" stroke-opacity=".097"/><use fill="#000" filter="url(#d)" xlink:href="#e"/><use fill="#FFF" xlink:href="#e"/></g></svg>
